src/img/arrow-to-right-long.svg

<svg xmlns="http://www.w3.org/2000/svg" xmlns:xlink="http://www.w3.org/1999/xlink" width="26px" height="13px">
	<path fill-rule="evenodd" fill="rgb(0, 0, 0)"
		d="M25.207,6.500 L25.353,6.646 L24.646,7.353 L24.500,7.207 L19.354,12.353 L18.646,11.646 L23.293,7.000 L-0.000,7.000 L-0.000,6.000 L23.293,6.000 L18.646,1.353 L19.354,0.646 L24.500,5.793 L24.646,5.646 L25.000,6.000 L25.000,6.000 L25.000,6.000 L25.353,6.354 L25.207,6.500 Z" />
</svg>

<svg xmlns="http://www.w3.org/2000/svg" width="26" height="13"><path fill-rule="evenodd" d="m25.2 6.5.15.15-.7.7-.15-.14-5.15 5.14-.7-.7 4.64-4.65h-23.29v-1h23.3l-4.65-4.65.7-.7 5.15 5.14.15-.14.35.35.35.35-.14.15Z"/></svg>
